optimized/24/solid/rss.svg

<svg xmlns="http://www.w3.org/2000/svg" viewBox="0 0 24 24">
  <path fill-rule="evenodd" d="M3.75 4.5C3.75 4.08579 4.08579 3.75 4.5 3.75H5.25C13.5343 3.75 20.25 10.4657 20.25 18.75V19.5C20.25 19.9142 19.9142 20.25 19.5 20.25H18.75C18.3358 20.25 18 19.9142 18 19.5V18.75C18 11.7084 12.2916 6 5.25 6H4.5C4.08579 6 3.75 5.66421 3.75 5.25V4.5ZM3.75 11.25C3.75 10.8358 4.08579 10.5 4.5 10.5H5.25C9.80635 10.5 13.5 14.1937 13.5 18.75V19.5C13.5 19.9142 13.1642 20.25 12.75 20.25H12C11.5858 20.25 11.25 19.9142 11.25 19.5V18.75C11.25 15.4363 8.56371 12.75 5.25 12.75H4.5C4.08579 12.75 3.75 12.4142 3.75 12V11.25ZM3.75 18.75C3.75 17.9216 4.42157 17.25 5.25 17.25C6.07843 17.25 6.75 17.9216 6.75 18.75C6.75 19.5784 6.07843 20.25 5.25 20.25C4.42157 20.25 3.75 19.5784 3.75 18.75Z" clip-rule="evenodd"/>
</svg>

<svg xmlns="http://www.w3.org/2000/svg" viewBox="0 0 24 24" fill="currentColor" aria-hidden="true">
  <path fill-rule="evenodd" d="M3.75 4.5a.75.75 0 01.75-.75h.75c8.284 0 15 6.716 15 15v.75a.75.75 0 01-.75.75h-.75a.75.75 0 01-.75-.75v-.75C18 11.708 12.292 6 5.25 6H4.5a.75.75 0 01-.75-.75V4.5zm0 6.75a.75.75 0 01.75-.75h.75a8.25 8.25 0 018.25 8.25v.75a.75.75 0 01-.75.75H12a.75.75 0 01-.75-.75v-.75a6 6 0 00-6-6H4.5a.75.75 0 01-.75-.75v-.75zm0 7.5a1.5 1.5 0 113 0 1.5 1.5 0 01-3 0z" clip-rule="evenodd"/>
</svg>
